src/Assets/Icon/ic-shield-warning-outline.svg

<svg width="24" height="24" viewBox="0 0 24 24" fill="none" xmlns="http://www.w3.org/2000/svg">
<g id="Icon/ic-shield-warning">
<path id="Vector" d="M12.0001 16V16.5M12.0001 8V13M3.11011 9.95959V5.81046C3.11011 5.3379 3.40687 4.91836 3.84683 4.76892L11.999 2L20.1512 4.76892C20.5911 4.91836 20.8879 5.3379 20.8879 5.81046V9.95959C20.8879 18.6069 13.6853 21.4719 12.2471 21.9577C12.0863 22.0141 11.9117 22.0141 11.7509 21.9577C10.3127 21.4719 3.11011 18.6069 3.11011 9.95959Z" stroke="#F33E3E" stroke-width="1.5" stroke-linecap="round" stroke-linejoin="round"/>
</g>
</svg>

<svg xmlns="http://www.w3.org/2000/svg" width="24" height="24" fill="none" viewBox="0 0 24 24">
  <path stroke="#3B444C" stroke-linecap="round" stroke-linejoin="round" stroke-width="1.5" d="M12 16v.5M12 8v5M3.11 9.96V5.81c0-.472.297-.892.737-1.041L11.999 2l8.152 2.769c.44.15.737.569.737 1.041v4.15c0 8.647-7.203 11.512-8.641 11.998a.749.749 0 0 1-.496 0C10.313 21.472 3.11 18.607 3.11 9.96Z" vector-effect="non-scaling-stroke"/>
</svg>
